src/images/svg/blog/instagram.svg

<svg width="24" height="24" viewBox="0 0 24 24" fill="none" xmlns="http://www.w3.org/2000/svg">
<circle cx="12" cy="12" r="12" fill="#333333"/>
<path fill-rule="evenodd" clip-rule="evenodd" d="M8.97446 5.24951H15.0234C17.0778 5.24951 18.7491 6.92082 18.749 8.97502V15.024C18.749 17.0782 17.0778 18.7495 15.0234 18.7495H8.97446C6.92025 18.7495 5.24902 17.0783 5.24902 15.024V8.97502C5.24902 6.92082 6.92025 5.24951 8.97446 5.24951ZM15.0237 17.5524C16.4175 17.5524 17.5515 16.4185 17.5515 15.0247H17.5514V8.9757C17.5514 7.58196 16.4174 6.44798 15.0236 6.44798H8.97465C7.5809 6.44798 6.447 7.58196 6.447 8.9757V15.0247C6.447 16.4185 7.5809 17.5525 8.97465 17.5524H15.0237ZM8.46389 12.0002C8.46389 10.0505 10.05 8.46437 11.9996 8.46437C13.9492 8.46437 15.5353 10.0505 15.5353 12.0002C15.5353 13.9498 13.9492 15.5358 11.9996 15.5358C10.05 15.5358 8.46389 13.9498 8.46389 12.0002ZM9.68128 12.0001C9.68128 13.2784 10.7213 14.3182 11.9995 14.3182C13.2778 14.3182 14.3178 13.2784 14.3178 12.0001C14.3178 10.7217 13.2779 9.68177 11.9995 9.68177C10.7212 9.68177 9.68128 10.7217 9.68128 12.0001ZM15.1282 7.73519C15.2773 7.58544 15.4847 7.49997 15.6959 7.49997C15.9077 7.49997 16.1152 7.58544 16.2642 7.73519C16.414 7.88422 16.4994 8.09169 16.4994 8.30354C16.4994 8.51466 16.414 8.72213 16.2642 8.87188C16.1145 9.02091 15.9077 9.10711 15.6959 9.10711C15.4847 9.10711 15.2773 9.02091 15.1282 8.87188C14.9785 8.72213 14.8923 8.51473 14.8923 8.30354C14.8923 8.09169 14.9784 7.88422 15.1282 7.73519Z" fill="white"/>
</svg>

<svg width="24" height="24" fill="none" xmlns="http://www.w3.org/2000/svg"><circle cx="12" cy="12" r="12" fill="#333"/><path fill-rule="evenodd" clip-rule="evenodd" d="M8.974 5.25h6.05a3.73 3.73 0 0 1 3.725 3.725v6.049a3.73 3.73 0 0 1-3.726 3.726H8.974a3.73 3.73 0 0 1-3.725-3.726V8.975A3.73 3.73 0 0 1 8.974 5.25zm6.05 12.302a2.53 2.53 0 0 0 2.528-2.527v-6.05a2.53 2.53 0 0 0-2.528-2.527h-6.05a2.53 2.53 0 0 0-2.527 2.528v6.049a2.53 2.53 0 0 0 2.528 2.527h6.049zM8.464 12A3.54 3.54 0 0 1 12 8.464 3.54 3.54 0 0 1 15.535 12 3.54 3.54 0 0 1 12 15.536 3.54 3.54 0 0 1 8.464 12zm1.217 0A2.32 2.32 0 0 0 12 14.318 2.32 2.32 0 0 0 14.317 12a2.32 2.32 0 0 0-2.319-2.318A2.32 2.32 0 0 0 9.681 12zm5.447-4.265a.807.807 0 0 1 1.136 0 .807.807 0 0 1 0 1.137.811.811 0 0 1-.568.235.81.81 0 0 1-.568-.235.81.81 0 0 1-.236-.568c0-.212.086-.42.236-.569z" fill="#fff"/></svg>
